X:119
M:6/8
L:1/8
K:G
g2f e2d | efg d3 | c2B A2G | ABG FED | g2f e2d | efg d2c | BGB AFA | G3 [G,3G3] :|
|: B2c d2=f | e2d c2B | A2B c2e | d2c B2A | G2A B2d | c2B A2G |

